images_sukapura_svg/cmd/sc_dbformedit.svg

<svg viewBox="0 0 16 16" xmlns="http://www.w3.org/2000/svg" xmlns:xlink="http://www.w3.org/1999/xlink"><linearGradient id="a" gradientUnits="userSpaceOnUse" x1="9.491526" x2="8.81356" y1="1.084746" y2="15.18644"><stop offset="0" stop-color="#848489"/><stop offset="1" stop-color="#616165"/></linearGradient><linearGradient id="b" gradientUnits="userSpaceOnUse" x1="61" x2="61" y1="29" y2="18"><stop offset="0" stop-color="#e9e9e9"/><stop offset=".2857143" stop-color="#f2f2f2"/><stop offset="1" stop-color="#fbfbfb"/></linearGradient>





     /&amp;amp;amp;gt;
 <path d="m1 4h14v11h-14z" fill="url(#b)"/><path d="m1 0c-.554 0-1 .446-1 1v14c0 .554.446 1 1 1h14c.554 0 1-.446 1-1v-14c0-.554-.446-1-1-1zm0 4h14v11h-14z" fill="url(#a)"/><g fill="#98989d"><path d="m6.5 6c-.277 0-.5.223-.5.5v2c0 .277.223.5.5.5h7c.277 0 .5-.223.5-.5v-2c0-.277-.223-.5-.5-.5zm.5 1h6v1h-6z"/><path d="m6.5 10c-.277 0-.5.223-.5.5v2c0 .277.223.5.5.5h7c.277 0 .5-.223.5-.5v-2c0-.277-.223-.5-.5-.5zm.5 1h6v1h-6z"/><path d="m2.5 6c-.277 0-.5.223-.5.5v2c0 .277.223.5.5.5h2c.277 0 .5-.223.5-.5v-2c0-.277-.223-.5-.5-.5zm.5 1h1v1h-1z"/><path d="m2.5 10c-.277 0-.5.223-.5.5v2c0 .277.223.5.5.5h2c.277 0 .5-.223.5-.5v-2c0-.277-.223-.5-.5-.5zm.5 1h1v1h-1z"/></g><path d="m13.570312 4.9980469c-.517498 0-1.057775.206693-1.453124.6015625l-1.25586 1.2539062a1.5017972 1.5017972 0 0 0 -.226562.2949219 1.5017972 1.5017972 0 0 0 -.34961.2675781l-3.5253904 3.6503904a1.5017972 1.5017972 0 0 0 -.34375.574219 1.5017972 1.5017972 0 0 0 -.2441406.410156l-1.0683594 2.712891a1.5017972 1.5017972 0 0 0 .0644532 1.236328h4.9179692a1.5017972 1.5017972 0 0 0 .359374-.248047 1.5017972 1.5017972 0 0 0 .652344-.408203l3.492188-3.736328a1.5017972 1.5017972 0 0 0 .177734-.232422 1.5017972 1.5017972 0 0 0 .330078-.238281l.902344-.865235v-3.6992184l-.974609-.9726562c-.401655-.4011279-.937517-.6015625-1.455079-.6015625zm-1.380859 2.1621093.236328.2363282a1.5017972 1.5017972 0 0 0 -.265625-.2089844z" fill="#fff" fill-opacity=".784314"/><g fill="#eac282" transform="translate(-.495572 -.5)"><path d="m8.0648836 13.101074-1.0693114 2.712486 2.9227772-.657095z" fill="#a2a2a7" stroke="#848489" stroke-linecap="square"/><path d="m11.861005 8.958496-3.524935 3.651053 2.158551 2.207933 3.493336-3.734963z" fill="#fc0" stroke="#c89e00"/><path d="m14.065594 7c-.142171 0-.283638.05379-.392578.1625977l-1.255371 1.2524416 2.135742 2.1372067 1.283203-1.229004c.21788-.2175952.21788-.5675602 0-.7851562l-1.376953-1.3754881c-.108941-.108798-.251871-.1625977-.394043-.1625977z" fill="#e68497" stroke="#b6496c"/><path d="m13.411678 10.101871-.552201-.5355508-3.5918326 3.4336798.7279278.5z" fill="#ffe014"/></g></svg>

<?xml version="1.0" encoding="UTF-8" standalone="no"?>
<svg
   xmlns:dc="http://purl.org/dc/elements/1.1/"
   xmlns:cc="http://creativecommons.org/ns#"
   xmlns:rdf="http://www.w3.org/1999/02/22-rdf-syntax-ns#"
   xmlns:svg="http://www.w3.org/2000/svg"
   xmlns="http://www.w3.org/2000/svg"
   xmlns:sodipodi="http://sodipodi.sourceforge.net/DTD/sodipodi-0.dtd"
   xmlns:inkscape="http://www.inkscape.org/namespaces/inkscape"
   viewBox="0 0 16 16"
   version="1.1"
   id="svg32"
   sodipodi:docname="sc_dbformedit.svg"
   inkscape:version="0.92.4 (unknown)"><metadata
   id="metadata38">
  <rdf:RDF>
    <cc:Work
       rdf:about="">
      <dc:format>image/svg+xml</dc:format>
      <dc:type
         rdf:resource="http://purl.org/dc/dcmitype/StillImage" />
      <dc:title></dc:title>
    </cc:Work>
  </rdf:RDF>
</metadata>
<defs
   id="defs36" />
<sodipodi:namedview
   pagecolor="#ffffff"
   bordercolor="#666666"
   borderopacity="1"
   objecttolerance="10"
   gridtolerance="10"
   guidetolerance="10"
   inkscape:pageopacity="0"
   inkscape:pageshadow="2"
   inkscape:window-width="1360"
   inkscape:window-height="714"
   id="namedview34"
   showgrid="true"
   inkscape:zoom="10.429825"
   inkscape:cx="4.2169446"
   inkscape:cy="12.777646"
   inkscape:window-x="0"
   inkscape:window-y="28"
   inkscape:window-maximized="1"
   inkscape:current-layer="svg32">
  <inkscape:grid
     type="xygrid"
     id="grid1542" />
</sodipodi:namedview>
<linearGradient
   id="a"
   gradientUnits="userSpaceOnUse"
   x1="9.491526"
   x2="8.81356"
   y1="1.084746"
   y2="15.18644">
  <stop
     offset="0"
     stop-color="#848489"
     id="stop2" />
  <stop
     offset="1"
     stop-color="#616165"
     id="stop4" />
</linearGradient>
<linearGradient
   id="b"
   gradientUnits="userSpaceOnUse"
   x1="61"
   x2="61"
   y1="29"
   y2="18">
  <stop
     offset="0"
     stop-color="#e9e9e9"
     id="stop7" />
  <stop
     offset=".2857143"
     stop-color="#f2f2f2"
     id="stop9" />
  <stop
     offset="1"
     stop-color="#fbfbfb"
     id="stop11" />
</linearGradient>





     /&amp;amp;gt;
 <path
   d="m1 4h14v11h-14z"
   fill="url(#b)"
   id="path14" />
<path
   d="m1 0c-.554 0-1 .446-1 1v14c0 .554.446 1 1 1h14c.554 0 1-.446 1-1v-14c0-.554-.446-1-1-1zm0 4h14v11h-14z"
   fill="url(#a)"
   id="path16" />
<g
   fill="#98989d"
   id="g26">
  <path
     d="m6.5 6c-.277 0-.5.223-.5.5v2c0 .277.223.5.5.5h7c.277 0 .5-.223.5-.5v-2c0-.277-.223-.5-.5-.5zm.5 1h6v1h-6z"
     id="path18" />
  <path
     d="m6.5 10c-.277 0-.5.223-.5.5v2c0 .277.223.5.5.5h7c.277 0 .5-.223.5-.5v-2c0-.277-.223-.5-.5-.5zm.5 1h6v1h-6z"
     id="path20" />
  <path
     d="m2.5 6c-.277 0-.5.223-.5.5v2c0 .277.223.5.5.5h2c.277 0 .5-.223.5-.5v-2c0-.277-.223-.5-.5-.5zm.5 1h1v1h-1z"
     id="path22" />
  <path
     d="m2.5 10c-.277 0-.5.223-.5.5v2c0 .277.223.5.5.5h2c.277 0 .5-.223.5-.5v-2c0-.277-.223-.5-.5-.5zm.5 1h1v1h-1z"
     id="path24" />
</g>
<path
   style="fill:#ffffff;stroke:none;stroke-linecap:square;fill-opacity:0.78431374"
   d="M 13.570312 4.9980469 C 13.052814 4.9980469 12.512537 5.2047399 12.117188 5.5996094 L 10.861328 6.8535156 A 1.5017972 1.5017972 0 0 0 10.634766 7.1484375 A 1.5017972 1.5017972 0 0 0 10.285156 7.4160156 L 6.7597656 11.066406 A 1.5017972 1.5017972 0 0 0 6.4160156 11.640625 A 1.5017972 1.5017972 0 0 0 6.171875 12.050781 L 5.1035156 14.763672 A 1.5017972 1.5017972 0 0 0 5.1679688 16 L 10.085938 16 A 1.5017972 1.5017972 0 0 0 10.445312 15.751953 A 1.5017972 1.5017972 0 0 0 11.097656 15.34375 L 14.589844 11.607422 A 1.5017972 1.5017972 0 0 0 14.767578 11.375 A 1.5017972 1.5017972 0 0 0 15.097656 11.136719 L 16 10.271484 L 16 6.5722656 L 15.025391 5.5996094 C 14.623736 5.1984815 14.087874 4.9980469 13.570312 4.9980469 z M 12.189453 7.1601562 L 12.425781 7.3964844 A 1.5017972 1.5017972 0 0 0 12.160156 7.1875 L 12.189453 7.1601562 z "
   id="path1544" />
<g
   style="fill:#eac282"
   transform="translate(-0.49557199,-0.5)"
   id="g960">
  <path
     style="fill:#a2a2a7;stroke:#848489;stroke-linecap:square"
     inkscape:connector-curvature="0"
     d="M 8.0648836,13.101074 6.9955722,15.81356 9.9183494,15.156465 Z"
     id="path952" />
  <path
     style="fill:#ffcc00;stroke:#c89e00"
     inkscape:connector-curvature="0"
     d="m 11.861005,8.958496 -3.524935,3.651053 2.158551,2.207933 3.493336,-3.734963 z"
     id="path954" />
  <path
     style="fill:#e68497;stroke:#b6496c"
     inkscape:connector-curvature="0"
     d="m 14.065594,7 c -0.142171,0 -0.283638,0.05379 -0.392578,0.1625977 l -1.255371,1.2524416 2.135742,2.1372067 1.283203,-1.229004 c 0.21788,-0.2175952 0.21788,-0.5675602 0,-0.7851562 L 14.459637,7.1625977 C 14.350696,7.0537997 14.207766,7 14.065594,7 Z"
     id="path956" />
  <path
     style="fill:#ffe014"
     inkscape:connector-curvature="0"
     d="M 13.411678,10.101871 12.859477,9.5663202 9.2676444,13 9.9955722,13.5 Z"
     id="path958" />
</g>
</svg>
